X: 1
T: Big Main Melody
M: 4/4
L: 1/8
Q:1/4=170
K:C
V:1
c/2z3/2 
c/2z/2e/2z3/2e/2z/2 A/2z3/2|A/2z/2c/2z3/2c/2z/2 d/2z3/2 d/2z/2f/2z/2|zf/2z/2 G/2z3/2 G/2z/2B/2z3/2B/2z/2|c/2z3/2 c/2z/2e/2z3/2e/2z/2 A/2z3/2|
A/2z/2c/2z3/2c/2z/2 F/2z3/2 F/2z/2A/2z/2|zA/2z/2 G/2z3/2 G/2z/2B/2z3/2B/2z/2|C/2z3/2 C/2z/2[e/2c/2]z3/2[e/2c/2]z/2 A,/2z3/2|A,/2z/2[c/2A/2]z3/2[c/2A/2]z/2 D/2z3/2 D/2z/2[f/2d/2]z/2|
z[f/2d/2]z/2 G,/2z3/2 G,/2z/2[B/2G/2]z3/2[B/2G/2]z/2|C/2z3/2 C/2z/2[e/2c/2]z3/2[e/2c/2]z/2 A,/2z3/2|A,/2z/2[c/2A/2]z3/2[c/2A/2]z/2 F,/2z3/2 F,/2z/2[A/2F/2]z/2|z[A/2F/2]z/2 G,/2z3/2 G,/2z/2[B/2G/2]z3/2[B/2G/2]z/2|
C/2z3/2 C/2z/2[e/2c/2]z3/2[e/2c/2]z/2 A,/2z3/2|A,/2z/2[c/2A/2]z3/2[c/2A/2]z/2 D/2z3/2 D/2z/2[f/2d/2]z/2|z[f/2d/2]z/2 G,/2z3/2 G,/2z/2[B/2G/2]z3/2[B/2G/2]z/2|C/2z3/2 C/2z/2[e/2c/2]z3/2[e/2c/2]z/2 A,/2z3/2|
A,/2z/2[c/2A/2]z3/2[c/2A/2]z/2 F,/2z3/2 F,/2z/2[A/2F/2]z/2|z[A/2F/2]z/2 G,/2z3/2 G,/2z/2[B/2G/2]z3/2[B/2G/2]z/2|C/2z3/2 C/2z/2[e/2c/2]z3/2[e/2c/2]z/2 A,/2z3/2|A,/2z/2[c/2A/2]z3/2[c/2A/2]z/2 D/2z3/2 D/2z/2[f/2d/2]z/2|
z[f/2d/2]z/2 G,/2z3/2 G,/2z/2[B/2G/2]z3/2[B/2G/2]z/2|C/2z3/2 C/2z/2[e/2c/2]z3/2[e/2c/2]z/2 A,/2z3/2|A,/2z/2[c/2A/2]z3/2[c/2A/2]z/2 F,/2z3/2 F,/2z/2[A/2F/2]z/2|z[A/2F/2]z/2 G,/2z3/2 G,/2z/2[B/2G/2]z3/2[B/2G/2]z/2|
C/2z3/2 C/2z/2[e/2c/2]z3/2[e/2c/2]z/2 A,/2z3/2|A,/2z/2[c/2A/2]z3/2[c/2A/2]z/2 D/2z3/2 D/2z/2[f/2d/2]z/2|z[f/2d/2]z/2 G,/2z3/2 G,/2z/2[B/2G/2]z3/2[B/2G/2]z/2|C/2z3/2 C/2z/2[e/2c/2]z3/2[e/2c/2]z/2 A,/2z3/2|
A,/2z/2[c/2A/2]z3/2[c/2A/2]z/2 F,/2z3/2 F,/2z/2[A/2F/2]z/2|z[A/2F/2]z/2 G,/2z3/2 G,/2z/2[B/2G/2]z3/2[B/2G/2]z/2|C3/2z3/2C3/2z3/2 C3/2z/2|z6 C/2z/2B,/2z/2|
zA,/2z/2 B,/2z3/2 C/2z/2D/2z2z/2|E3/2z3/2E3/2z3/2 E3/2z/2|z6 E/2z/2D/2z/2|zC/2z/2 D/2z3/2 E/2z/2F/2z2z/2|
G/2z4z3/2 C/2z3/2|z6 A/2z/2G/2z/2|zF/2z/2 E/2z2z/2D/2z2z/2|C/2z4z/2B,/2z/2 A,/2z3/2|
z3G,/2z/2 F,/2z3z/2|z3/2G,/2 z/2A,/2z2z/2B,/2 z2|z/2C/2
